X:1695
T:Fanney
A:Wyresdale, Lancashire
B:E and J Winder, 1835-41
L:1/8
M:6/8
O:England
Z:Richard Robinson 
%%TUNEURL: http://www.leeds.ac.uk/music/Info/RRTuneBk/gettune/00001275.html
%%ID:00001275
K:C
ggg gc'c' | ggg gc'c' | ge'd' c'ba | gfe f2d | \
ggg gc'c' | ggg gd'd' | ge'd' c'ba | gfd ec2 ::
dBG ecG | fdB ge2 | dBG ecG | fdB c2z |\
dBG ecG | fdB ge2 | dBG ecG | fdB c2z :|
%%newpage
%page 136
